!!!COM: Palestrina, Giovanni Perluigi da
!!!OPR: Missa Quando lieta sperai
!!!OTL: Agnus II
**kern	**kern	**kern	**kern	**kern	**kern
*Ibass	*Ibass	*Ibarit	*Itenor	*Icalto	*Icant
!Bassus 2	!Bassus 1	!Baritone	!Tenor	!Altus	!Cantus
*clefF4	*clefF4	*clefF4	*clefGv2	*clefG2	*clefG2
*k[]	*k[]	*k[]	*k[]	*k[]	*k[]
*A:aeo	*A:aeo	*A:aeo	*A:aeo	*A:aeo	*A:aeo
*M4/2	*M4/2	*M4/2	*M4/2	*M4/2	*M4/2
=1	=1	=1	=1	=1	=1
1A	1c#	0r	1e	0r	0r
[1D	[1d	.	[1f	.	.
=2	=2	=2	=2	=2	=2
2D]	2d]	0r	2f]	0r	0r
2E	2c	.	2e	.	.
2G	2B	.	2d	.	.
2A	2A	.	2c	.	.
=3	=3	=3	=3	=3	=3
0E	2G	0r	2B	1r	1r
.	2c	.	1A	.	.
.	1B	.	.	2r	1b
.	.	.	2G#	[2e	.
=4	=4	=4	=4	=4	=4
1AA	1A	1e	1A	2e]	1.cc
.	.	.	.	1a	.
1r	1r	2A	1r	.	.
.	.	2B	.	2g	2b
=5	=5	=5	=5	=5	=5
0r	0r	2d	0r	2f	2a
.	.	2e	.	2g	2g
.	.	1d	.	2a	2f
.	.	.	.	[2g	2b-
=6	=6	=6	=6	=6	=6
1D	2r	1d	1r	2g]	1a
.	2A	.	.	2f	.
[1C	[1c	[1e	2r	1g	1r
.	.	.	2c	.	.
=7	=7	=7	=7	=7	=7
2C]	2c]	2e]	2e	0r	1r
2D	2B	2d	1f	.	.
2F	2A	2c	.	.	2r
2G	2G	2B	2e	.	2g
=8	=8	=8	=8	=8	=8
0D	2F#	2A	1.d	1r	2a
.	2G	1G	.	.	2b
.	1A	.	.	[1d	2a
.	.	2F#	2A	.	[2dd
=9	=9	=9	=9	=9	=9
0r	2.G	1G	2B	1d]	4dd]
.	.	.	.	.	4cc
.	.	.	2d	.	2.b
.	4F	.	.	.	.
.	2E	1r	[1e	1g	.
.	.	.	.	.	4g
.	4C	.	.	.	[2cc
.	4D	.	.	.	.
=10	=10	=10	=10	=10	=10
0r	4E	2r	2e]	2.g	2cc]
.	4F	.	.	.	.
.	2G	2d	2d	.	2b
.	.	.	.	4f	.
.	1C	4e	[1c	1e	4a
.	.	4d	.	.	4g
.	.	4c	.	.	2g
.	.	4B	.	.	.
=11	=11	=11	=11	=11	=11
0r	0D	2A	2c]	[0d	2f#
.	.	2G	2B	.	1g
.	.	1A	2A	.	.
.	.	.	[2d	.	2f#
=12	=12	=12	=12	=12	=12
2r	1G	2.B	4d]	0d]	0g
.	.	.	4c	.	.
2G	.	.	4B	.	.
.	.	4c	4A	.	.
1G	2r	2d	1B	.	.
.	2d	2G	.	.	.
=13	=13	=13	=13	=13	=13
2F	1d	1D	0A	2r	0r
2D	.	.	.	2a	.
1F	2c	1r	.	1a	.
.	2A	.	.	.	.
=14	=14	=14	=14	=14	=14
2E	1c	0r	2r	2g	0r
4C	.	.	2e	2e	.
4D	.	.	.	.	.
4E	4G	.	2e	1g	.
4F	4A	.	.	.	.
2G	4B	.	[2d	.	.
.	4c	.	.	.	.
=15	=15	=15	=15	=15	=15
0D	2.d	0r	4d]	2f	1r
.	.	.	4e	.	.
.	.	.	2f	4d	.
.	4c	.	.	4e	.
.	2B	.	2d	4f	2r
.	.	.	.	4g	.
.	2A	.	4f	[2a	2dd
.	.	.	4e	.	.
=16	=16	=16	=16	=16	=16
0r	1B	1r	4d	2a]	1dd
.	.	.	4c	.	.
.	.	.	2d	2g#	.
.	1A	2r	2e	1a	2cc
.	.	2A	2f	.	2a
=17	=17	=17	=17	=17	=17
0r	0r	1A	1e	2r	1cc
.	.	.	.	2e	.
.	.	2G	2r	1e	2b
.	.	2E	2g	.	4g
.	.	.	.	.	4a
=18	=18	=18	=18	=18	=18
0r	0r	1G	1g	2d	4b
.	.	.	.	.	4cc
.	.	.	.	2B	2.dd
.	.	2D	2f	1d	.
.	.	.	.	.	4cc
.	.	[2d	2d	.	4b
.	.	.	.	.	4a
=19	=19	=19	=19	=19	=19
0r	2r	4d]	1.f	1d	4b
.	.	4c	.	.	4a
.	2d	4B	.	.	1a
.	.	4A	.	.	.
.	1d	1B	.	1r	.
.	.	.	4e	.	2g#
.	.	.	4d	.	.
=20	=20	=20	=20	=20	=20
2r	2c	1A	2e	0r	0a
2A	2A	.	2f	.	.
1A	1c	2r	1e	.	.
.	.	2e	.	.	.
=21	=21	=21	=21	=21	=21
2G	2B	1e	1g	2r	0r
2E	4G	.	.	2g	.
.	4A	.	.	.	.
1G	4B	2d	2r	1g	.
.	4c	.	.	.	.
.	[2d	2B	2d	.	.
=22	=22	=22	=22	=22	=22
1D	2d]	1d	2f	2f	1a
.	2.A	.	2f	2d	.
1A	.	2c	1e	2e	1a
.	4B	.	.	.	.
.	[2c	4A	.	4c	.
.	.	4B	.	4d	.
=23	=23	=23	=23	=23	=23
1E	2c]	4c	1e	4e	2g
.	.	4d	.	4f	.
.	4B	2.e	.	2.g	2e
.	4A	.	.	.	.
1r	1B	.	1r	.	2g
.	.	4d	.	4f	.
.	.	[2d	.	2d	2g
=24	=24	=24	=24	=24	=24
0r	1A	2d]	2r	1e	0a
.	.	2c#	2e	.	.
.	1r	2d	2f	2d	.
.	.	2A	2c	2e	.
=25	=25	=25	=25	=25	=25
0r	1D	2r	1d	4f	1a
.	.	.	.	4g	.
.	.	2A	.	1a	.
.	2F	2A	1d	.	1r
.	2G	2B	.	4g	.
.	.	.	.	4f	.
=26	=26	=26	=26	=26	=26
1AA	2A	2.c	2r	1e	0r
.	1c	.	2e	.	.
.	.	4d	.	.	.
2C	.	2e	2e	1r	.
2D	4B	4d	2f	.	.
.	4A	4c	.	.	.
=27	=27	=27	=27	=27	=27
1E	2.G	1.B	2.g	1r	0r
.	4A	.	8f	.	.
.	.	.	8e	.	.
2.G	1B	.	2d	2r	.
.	.	2G	2g	2d	.
8F	.	.	.	.	.
8E	.	.	.	.	.
=28	=28	=28	=28	=28	=28
2D	2d	2A	2f	2f	0r
2E	4c	1c	1e	2g	.
.	4B	.	.	.	.
1F	1A	.	.	1a	.
.	.	4B	2d	.	.
.	.	4A	.	.	.
=29	=29	=29	=29	=29	=29
1.E	2r	1B	0e	4g	2r
.	.	.	.	4a	.
.	2G	.	.	4b	2e
.	.	.	.	4cc	.
.	2B	1E	.	2b	2g
2AA	2c	.	.	2a	2a
=30	=30	=30	=30	=30	=30
2E	2B	2G	0r	2r	2b
2F#	2A	2A	.	2a	2.dd
1G	4G	1B	.	2d	.
.	4A	.	.	.	4cc
.	4B	.	.	[2g	2b
.	4G	.	.	.	.
=31	=31	=31	=31	=31	=31
2.D	1A	2.d	0r	2g]	2a
.	.	.	.	2f	2dd
4E	.	8c	.	.	.
.	.	8B	.	.	.
2F	1r	2A	.	2a	2cc
2G	.	2B	.	4g	2b
.	.	.	.	4f	.
=32	=32	=32	=32	=32	=32
1A	0r	1c	2r	1e	2a
.	.	.	2A	.	2.cc
1F	.	1A	2c	1a	.
.	.	.	.	.	4b
.	.	.	2d	.	[2a
=33	=33	=33	=33	=33	=33
1E	1r	1B	1.e	1r	2a]
.	.	.	.	.	2g#
1r	2r	[1A	.	2r	2a
.	[2F	.	[2f	[2a	[2cc
=34	=34	=34	=34	=34	=34
0r	2F]	1A]	2f]	2a]	2cc]
.	2F	.	2f	2a	2cc
.	2G	2r	2d	[1g	2b
.	2G	2B	[2e	.	2b
=35	=35	=35	=35	=35	=35
0r	0A	2c	2e]	2g]	[0a
.	.	2d	1d	2f	.
.	.	2e	.	1e	.
.	.	[2A	2c#	.	.
=36	=36	=36	=36	=36	=36
0r	1D	2A]	2d	1f#	1a]
.	.	1d	1d	.	.
.	1G	.	.	1g	1b
.	.	[2G	2d	.	.
=37	=37	=37	=37	=37	=37
2r	2.C	2G]	1e	1.g	1.cc
1C	.	1c	.	.	.
.	4D	.	.	.	.
.	1E	.	2e	.	.
2C	.	2e	[2g	2e	2cc
=38	=38	=38	=38	=38	=38
2D	1r	1d	4g]	2f	2a
.	.	.	4f	.	.
2D	.	.	2f	2d	2.b
[1E	2r	2B	[1e	[1g	.
.	.	.	.	.	4g
.	2E	[2e	.	.	2cc
=39	=39	=39	=39	=39	=39
1E]	2G	4e]	0e]	2g]	2b
.	.	4d	.	.	.
.	2A	2c	.	2.e	1a
1E	2B	1B	.	.	.
.	.	.	.	4d	.
.	[2e	.	.	2B	2g#
=40	=40	=40	=40	=40	=40
1.AA	4e]	2A	1e	2c#	0a
.	4d	.	.	.	.
.	4c#	1A	.	1e	.
.	4B	.	.	.	.
.	1c#	.	2r	.	.
2AA	.	2A	[2A	2e	.
=41	=41	=41	=41	=41	=41
1.D	2.d	2F	2A]	1.f	1.a
.	.	2D	2A	.	.
.	8c	.	.	.	.
.	8B	.	.	.	.
.	[1A	2r	2d	.	.
2C#	.	[2A	2e	2e	2a
=42	=42	=42	=42	=42	=42
0D	0A]	4A]	4f	2.d	2a
.	.	4G	4e	.	.
.	.	4F	4d	.	2a
.	.	4E	4c#	4e	.
.	.	1D	1d	1f	1a
=43	=43	=43	=43	=43	=43
0AA	0A	0E	0c#	0e	0a
==	==	==	==	==	==
*-	*-	*-	*-	*-	*-
!!!CDT: 1525/^1526/-1594/2/2
!!!OCY: Italia
!!!AGN: Mass (Parody)
!!!AST: renaissance, vocal
!!!ASW: Madrigal 1548 (anon (Rore, Morales))
!!!PWK: Masses, Book 11
!!!RNB: Cadence finals: G,E
!!!YOR: Le Opere Complete, v. 28, p. 73
!!!YOO: Rome, Italy: Fratelli Scalera
!!!END: 1992//
!!!EED: John Miller
!!!YEC: Copyright 2000, John Miller
!!!YEN: United States of America
!!!YEM: Rights to all derivative electronic formats reserved.
!!!YEM: Refer to licensing agreement for further details.
!!!YEM: This file must be accompanied by the licensing agreement.
!!!YEM: A copy of the licensing agreement may be found at http://www.music-cog.ohio-state.edu/HumdrumDatabases/Palestrina/license.txt
!!!EMD: converted to Humdrum by Bret Aarden
